src/assets/card-bg-red.svg

<svg width="391" height="234" viewBox="0 0 391 234" fill="none" xmlns="http://www.w3.org/2000/svg">
<g clip-path="url(#clip0_1811_1917)">
<rect x="0.847656" y="233.971" width="233.907" height="389.845" rx="17.3264" transform="rotate(-90 0.847656 233.971)" fill="#9B0041"/>
<path d="M4.95551 108.924C45.1531 109.973 83.3743 113.356 122.411 109.33C171.595 104.558 221.02 104.46 270.204 105.491C290.889 105.762 311.597 100.674 332.523 99.8164C335.81 99.6466 338.82 99.9375 343.015 99.9441C341.521 105.825 336.442 106.087 331.661 106.334C285.718 110.047 239.602 110.42 193.705 109.219C166.7 108.382 139.924 111.997 113.08 114.277C81.7656 117.011 51.1405 115.691 20.4693 113.48C9.03516 112.508 -2.61729 113.11 -14.1432 116.161C-15.2811 111.532 -16.3959 107.348 -17.844 102.512C17.3661 99.8006 51.0016 89.8039 87.3956 92.6117C116.274 94.9147 144.991 88.2972 172.858 82.6165C215.262 74.1759 257.769 73.5427 300.047 80.0645C312.125 81.8961 325.007 81.9003 337.464 79.4711C336.648 86.8796 335.775 87.3711 325.283 87.2434C306.678 86.6419 288.303 84.6892 270.468 81.5925C242.669 77.0014 214.986 80.4404 187.338 84.5472C168.308 87.316 149.622 90.9599 130.983 95.4942C107.908 101.151 84.7067 98.5543 61.8729 97.2784C45.957 96.538 30.8917 100.665 15.1023 102.373C15.1368 103.041 15.1828 103.931 15.2173 104.599C26.2722 104.028 37.3041 103.012 48.382 102.886C100.221 103.11 151.829 98.8819 202.622 90.4544C223.709 86.9097 244.302 91.2033 265.021 92.142C287.545 93.2108 310.298 92.9284 332.683 91.3256C337.165 91.0941 341.314 90.2101 344.21 94.0786C340.487 97.396 335.361 96.7679 330.604 97.46C305.587 100.315 280.926 98.4636 256.23 95.9445C232.132 93.3945 208.287 95.7423 184.178 98.7735C158.575 101.882 132.259 102.795 106.334 105.473C73.5373 108.507 40.0506 103.986 4.95551 108.924Z" fill="#0D1218"/>
<path d="M-10.1406 71.1158C2.37459 65.3154 16.9591 64.9585 30.2321 62.2906C45.5755 59.3175 61.6256 58.4884 77.4297 58.6632C97.7125 59.0031 116.49 53.2757 135.359 49.3276C184.013 39.2817 233.055 36.7484 282.701 40.1307C293.473 40.9619 303.712 37.2614 315.683 38.2288C310.045 44.4669 302.071 45.8699 293.411 45.5244C261.434 43.8063 228.965 44.0959 196.803 44.5678C181.614 44.7577 166.885 48.0955 152.147 51.2356C125.324 56.9821 99.1261 63.2911 69.9265 63.4118C45.4927 63.4845 20.6177 66.5535 -3.24313 71.9488C-5.28286 72.8471 -7.31238 73.9431 -10.1406 71.1158Z" fill="#0D1218"/>
<path d="M337.3 73.1529C324.054 77.3779 313.801 75.8247 304.432 74.0176C239.766 61.7367 176.375 68.3437 113.51 85.1294C105.538 87.2074 97.8545 89.0623 89.3594 86.7935C67.2209 81.0637 46.6 87.336 25.6163 92.3773C22.3659 93.17 19.0941 93.5473 16.1635 94.7401C4.13235 99.3189 -6.85744 95.0961 -18.3475 92.7737C-17.6454 88.9883 -13.4568 88.9802 -10.4083 90.0725C6.06031 96.0951 21.2882 89.6849 36.3573 85.9905C54.1013 81.9497 70.6838 78.5937 88.8464 82.6543C100.049 85.1999 110.599 80.9058 120.627 78.0967C142.175 72.4014 163.788 67.9525 186.457 66.5732C220.764 64.5928 255.06 62.4046 289.337 65.6328C304.376 67.1471 319.415 68.6614 337.3 73.1529Z" fill="#0D1218"/>
<path d="M323.042 51.7423C324.766 56.1323 320.862 55.9073 317.932 57.1252C300.358 64.6449 282.778 60.4341 265.893 58.1069C220.967 51.896 177.122 55.014 134.048 67.2636C113.401 73.2358 92.2356 74.969 70.3193 73.7549C62.5127 73.305 55.0265 73.2651 47.9818 75.9752C30.9507 82.4004 12.097 82.5212 -6.35912 84.541C-8.13953 84.8462 -10.2625 84.316 -12.9715 84.0294C-8.72379 79.3309 -2.44291 79.2197 2.94227 79.1549C16.4107 79.099 29.4707 76.9314 41.8567 73.3055C53.0703 70.1668 63.8187 69.6116 75.2192 70.0891C88.7206 70.6715 101.803 68.9293 114.509 65.7134C147.608 57.3917 181.48 52.4427 216.069 49.8028C237.843 48.2516 259.072 53.5536 280.999 54.9804C294.821 55.9728 308.887 55.8861 323.042 51.7423Z" fill="#0D1218"/>
<path d="M339.114 108.261C338.752 112.81 335.462 112.764 331.588 112.964C294.005 114.258 256.588 118.78 219.149 122.871C174.294 127.992 128.83 132.929 83.9038 125.111C55.8661 120.304 27.5768 122.197 -0.854868 127.117C-4.70685 127.747 -8.81239 129.253 -12.0037 125.32C9.01096 121.43 29.7276 117.556 51.2847 118.384C71.6387 119.058 91.2209 122.145 111.045 124.141C141.688 127.304 171.907 122.291 202.261 119.86C247.801 116.429 292.535 108.942 339.114 108.261Z" fill="#0D1218"/>
<rect width="234" height="130" transform="matrix(0 -1 1 0 261 234)" fill="#0D1218"/>
<path d="M86.6995 155.747C86.3566 155.648 86.0095 155.241 85.938 154.853C85.8917 154.6 85.9505 154.424 86.3168 153.723C87.7983 150.889 88.4478 148.281 88.4601 145.115C88.472 142.056 87.9164 139.675 86.5205 136.822C86.2215 136.21 85.9764 135.641 85.9767 135.559C85.9779 135.255 86.2351 134.815 86.5115 134.642C86.8908 134.406 87.5259 134.45 87.8289 134.734C87.9447 134.843 88.2468 135.339 88.499 135.836C89.4969 137.804 90.1777 139.963 90.5096 142.209C90.715 143.6 90.7466 146.235 90.5727 147.508C90.254 149.857 89.6228 151.952 88.6187 154.005C88.0111 155.245 87.632 155.756 87.3144 155.756C87.2509 155.756 87.1481 155.772 87.0858 155.791C87.0223 155.81 86.848 155.79 86.6995 155.747ZM82.6126 153.614C82.0875 153.461 81.7102 152.818 81.8634 152.335C81.9004 152.219 82.1512 151.681 82.4195 151.141C83.5543 148.852 84.0328 146.399 83.8125 143.99C83.6323 142.011 83.2804 140.763 82.3901 138.937C81.7934 137.711 81.7658 137.522 82.1177 137.028C82.4534 136.559 83.2836 136.483 83.7186 136.882C84.0202 137.158 84.9519 139.114 85.3112 140.222C86.4984 143.888 86.2992 147.824 84.7458 151.425C83.9506 153.27 83.3943 153.841 82.6126 153.614ZM78.3988 151.45C78.0737 151.304 77.7952 150.961 77.7209 150.616C77.6744 150.406 77.7564 150.173 78.1446 149.394C79.5749 146.533 79.6005 143.778 78.2247 140.984C77.62 139.757 77.6074 139.513 78.1242 139.029C78.3806 138.79 78.4875 138.748 78.8457 138.748C79.4444 138.748 79.7528 139.047 80.2837 140.142C81.1002 141.826 81.4311 143.286 81.4211 145.158C81.4109 147.081 81.0908 148.402 80.2054 150.177C79.6973 151.194 79.4476 151.462 78.9432 151.531C78.789 151.552 78.5445 151.516 78.3988 151.45ZM74.4669 149.435C74.2092 149.329 73.9173 148.979 73.8306 148.676C73.7346 148.336 73.8154 148.067 74.2044 147.433C74.705 146.618 74.8229 146.18 74.8271 145.115C74.8312 144.05 74.7167 143.612 74.2225 142.797C74.0546 142.521 73.887 142.189 73.8483 142.061C73.6909 141.524 74.1422 140.865 74.7468 140.753C75.2594 140.657 75.6099 140.884 76.0774 141.616C77.4315 143.734 77.4204 146.564 76.0499 148.664C75.5658 149.405 75.0283 149.667 74.4669 149.435Z" fill="#0D1218"/>
<g clip-path="url(#clip1_1811_1917)">
<rect x="24.6717" y="158.623" width="26.4457" height="36.3628" rx="3.63628" transform="rotate(-90 24.6717 158.623)" fill="url(#paint0_linear_1811_1917)"/>
<path fill-rule="evenodd" clip-rule="evenodd" d="M48.7847 131.626L43.004 137.021L37.2234 131.603L36.7506 132.045L42.6698 137.594V140.59L37.3213 140.58L36.6527 140.579L21.9445 140.55V141.175L36.6527 141.204L36.6527 149.959L21.9445 149.93V150.556L36.6527 150.584L37.3213 150.586L42.6698 150.596V153.594L36.7506 159.118L37.2234 159.562L43.004 154.166L48.7847 159.584L49.2575 159.143L43.3383 153.595V150.597L48.6868 150.608L49.3553 150.609L64.0636 150.638V150.013L49.3553 149.984L49.3553 141.229L64.0636 141.258V140.632L49.0211 140.603C48.8364 140.602 48.6868 140.742 48.6868 140.915V149.983L43.004 149.971L37.3213 149.96V141.205L43.004 141.216C43.1887 141.217 43.3383 141.077 43.3383 140.904V137.595L49.2575 132.07L48.7847 131.626Z" fill="#47453F"/>
</g>
<rect x="24.6717" y="158.623" width="26.4457" height="36.3628" rx="3.63628" transform="rotate(-90 24.6717 158.623)" stroke="#47453F" stroke-width="0.545442"/>
</g>
<defs>
<linearGradient id="paint0_linear_1811_1917" x1="24.8849" y1="158.623" x2="68.6679" y2="196.841" gradientUnits="userSpaceOnUse">
<stop stop-color="#F8ECC1"/>
<stop offset="1" stop-color="#C8AC48"/>
</linearGradient>
<clipPath id="clip0_1811_1917">
<rect x="0.847656" y="233.971" width="233.907" height="389.845" rx="17.3264" transform="rotate(-90 0.847656 233.971)" fill="white"/>
</clipPath>
<clipPath id="clip1_1811_1917">
<rect x="24.6717" y="158.623" width="26.4457" height="36.3628" rx="3.63628" transform="rotate(-90 24.6717 158.623)" fill="white"/>
</clipPath>
</defs>
</svg>

<svg width="391" height="234" fill="none" xmlns="http://www.w3.org/2000/svg"><g clip-path="url(#clip0_1811_1917)"><rect x=".848" y="233.971" width="233.907" height="389.845" rx="17.326" transform="rotate(-90 .848 233.971)" fill="#9B0041"/><path d="M4.956 108.924c40.197 1.049 78.418 4.432 117.455.406 49.184-4.772 98.609-4.87 147.793-3.839 20.685.271 41.393-4.817 62.319-5.675 3.287-.17 6.297.121 10.492.128-1.494 5.881-6.573 6.143-11.354 6.39-45.943 3.713-92.059 4.086-137.956 2.885-27.005-.837-53.781 2.778-80.625 5.058-31.314 2.734-61.94 1.414-92.61-.797-11.435-.972-23.087-.37-34.613 2.681a271.839 271.839 0 00-3.701-13.649c35.21-2.711 68.846-12.708 105.24-9.9 28.878 2.303 57.595-4.315 85.462-9.995 42.404-8.441 84.911-9.074 127.189-2.553 12.078 1.832 24.96 1.836 37.417-.593-.816 7.409-1.689 7.9-12.181 7.772-18.605-.601-36.98-2.554-54.815-5.65-27.799-4.592-55.482-1.153-83.13 2.954a608.07 608.07 0 00-56.355 10.947c-23.075 5.657-46.276 3.06-69.11 1.784-15.916-.74-30.981 3.387-46.77 5.095l.114 2.226c11.055-.571 22.087-1.587 33.165-1.713 51.839.224 103.447-4.004 154.24-12.432 21.087-3.544 41.68.75 62.399 1.688a571.478 571.478 0 0067.662-.816c4.482-.232 8.631-1.116 11.527 2.753-3.723 3.317-8.849 2.689-13.606 3.381-25.017 2.855-49.678 1.004-74.374-1.515-24.098-2.55-47.943-.203-72.052 2.829-25.603 3.108-51.919 4.021-77.844 6.699-32.797 3.034-66.283-1.487-101.378 3.451zM-10.14 71.116c12.515-5.8 27.1-6.157 40.372-8.825 15.343-2.973 31.394-3.803 47.198-3.628 20.282.34 39.06-5.387 57.929-9.335 48.654-10.046 97.696-12.58 147.342-9.197 10.772.83 21.011-2.87 32.982-1.902-5.638 6.238-13.612 7.64-22.272 7.295-31.977-1.718-64.446-1.428-96.608-.956-15.189.19-29.918 3.528-44.656 6.668-26.823 5.746-53.02 12.055-82.22 12.176-24.434.072-49.31 3.142-73.17 8.537-2.04.898-4.07 1.994-6.898-.833z" fill="#0D1218"/><path d="M337.3 73.153c-13.246 4.225-23.499 2.672-32.868.865-64.666-12.281-128.057-5.674-190.922 11.111-7.972 2.078-15.656 3.933-24.15 1.664-22.14-5.73-42.76.543-63.744 5.584-3.25.793-6.522 1.17-9.453 2.363-12.03 4.579-23.02.356-34.51-1.966.702-3.786 4.89-3.794 7.939-2.701 16.468 6.022 31.696-.388 46.765-4.082 17.744-4.041 34.327-7.397 52.49-3.337 11.202 2.546 21.752-1.748 31.78-4.557 21.548-5.696 43.161-10.144 65.83-11.524 34.307-1.98 68.603-4.168 102.88-.94 15.039 1.514 30.078 3.028 47.963 7.52z" fill="#0D1218"/><path d="M323.042 51.742c1.724 4.39-2.18 4.165-5.11 5.383-17.574 7.52-35.154 3.31-52.039.982-44.926-6.211-88.771-3.093-131.845 9.157-20.647 5.972-41.812 7.705-63.729 6.49-7.806-.449-15.293-.489-22.337 2.221C30.95 82.4 12.097 82.521-6.36 84.541c-1.78.305-3.903-.225-6.613-.512 4.248-4.698 10.53-4.81 15.914-4.874 13.469-.056 26.529-2.224 38.915-5.85 11.213-3.138 21.962-3.693 33.362-3.216 13.502.582 26.584-1.16 39.29-4.376 33.099-8.321 66.971-13.27 101.56-15.91 21.774-1.551 43.003 3.75 64.93 5.177 13.822.993 27.888.906 42.043-3.238zm16.072 56.519c-.362 4.549-3.652 4.503-7.526 4.703-37.583 1.294-75 5.816-112.439 9.907-44.855 5.121-90.319 10.058-135.245 2.24-28.038-4.807-56.327-2.914-84.759 2.006-3.852.63-7.957 2.136-11.149-1.797 21.015-3.89 41.732-7.764 63.289-6.936 20.354.674 39.936 3.761 59.76 5.757 30.643 3.163 60.862-1.85 91.216-4.281 45.54-3.431 90.274-10.918 136.853-11.599z" fill="#0D1218"/><path fill="#0D1218" d="M261 234V0h130v234zM86.7 155.747c-.343-.099-.69-.506-.762-.894-.046-.253.013-.429.379-1.13 1.481-2.834 2.13-5.442 2.143-8.608.012-3.059-.544-5.44-1.94-8.293-.298-.612-.544-1.181-.543-1.263 0-.304.258-.744.534-.917.38-.236 1.015-.192 1.318.092.116.109.418.605.67 1.102a20.844 20.844 0 012.01 6.373c.206 1.391.238 4.026.064 5.299-.319 2.349-.95 4.444-1.954 6.497-.608 1.24-.987 1.751-1.305 1.751a.944.944 0 00-.228.035c-.064.019-.238-.001-.386-.044zm-4.087-2.133c-.525-.153-.903-.796-.75-1.279.037-.116.288-.654.556-1.194 1.135-2.289 1.614-4.742 1.394-7.151-.18-1.979-.533-3.227-1.423-5.053-.597-1.226-.624-1.415-.272-1.909.335-.469 1.166-.545 1.6-.146.302.276 1.234 2.232 1.593 3.34 1.187 3.666.988 7.602-.565 11.203-.795 1.845-1.352 2.416-2.133 2.189zm-4.214-2.164a1.263 1.263 0 01-.678-.834c-.047-.21.035-.443.424-1.222 1.43-2.861 1.456-5.616.08-8.41-.605-1.227-.618-1.471-.1-1.955.256-.239.362-.281.72-.281.6 0 .908.299 1.439 1.394.816 1.684 1.147 3.144 1.137 5.016-.01 1.923-.33 3.244-1.216 5.019-.508 1.017-.757 1.285-1.262 1.354a1.173 1.173 0 01-.544-.081zm-3.932-2.015c-.258-.106-.55-.456-.636-.759-.096-.34-.016-.609.373-1.243.501-.815.619-1.253.623-2.318.004-1.065-.11-1.503-.605-2.318-.167-.276-.335-.608-.374-.736-.157-.537.294-1.196.899-1.308.512-.096.863.131 1.33.863 1.355 2.118 1.343 4.948-.027 7.048-.484.741-1.022 1.003-1.583.771z"/><g clip-path="url(#clip1_1811_1917)"><rect x="24.672" y="158.623" width="26.446" height="36.363" rx="3.636" transform="rotate(-90 24.672 158.623)" fill="url(#paint0_linear_1811_1917)"/><path fill-rule="evenodd" clip-rule="evenodd" d="M48.785 131.626l-5.781 5.395-5.78-5.418-.473.442 5.919 5.549v2.996l-5.349-.01-.668-.001-14.708-.029v.625l14.708.029v8.755l-14.708-.029v.626l14.708.028.668.002 5.349.01v2.998l-5.92 5.524.473.444 5.781-5.396 5.78 5.418.474-.441-5.92-5.548v-2.998l5.349.011.668.001 14.709.029v-.625l-14.709-.029v-8.755l14.709.029v-.626l-15.043-.029c-.185-.001-.334.139-.334.312v9.068l-5.683-.012-5.683-.011v-8.755l5.683.011c.185.001.334-.139.334-.312v-3.309l5.92-5.525-.473-.444z" fill="#47453F"/></g><rect x="24.672" y="158.623" width="26.446" height="36.363" rx="3.636" transform="rotate(-90 24.672 158.623)" stroke="#47453F" stroke-width=".545"/></g><defs><clipPath id="clip0_1811_1917"><rect x=".848" y="233.971" width="233.907" height="389.845" rx="17.326" transform="rotate(-90 .848 233.971)" fill="#fff"/></clipPath><clipPath id="clip1_1811_1917"><rect x="24.672" y="158.623" width="26.446" height="36.363" rx="3.636" transform="rotate(-90 24.672 158.623)" fill="#fff"/></clipPath><linearGradient id="paint0_linear_1811_1917" x1="24.885" y1="158.623" x2="68.668" y2="196.841" gradientUnits="userSpaceOnUse"><stop stop-color="#F8ECC1"/><stop offset="1" stop-color="#C8AC48"/></linearGradient></defs></svg>
